!!!OTL: GOTT GRUESS DICH LIEBES MAEDCHEN
!!!ARE: Europa, Mitteleuropa, Deutschland
!!!SCT: E0756A
!!!YEM: Copyright 1995, estate of Helmut Schaffrath.
**kern
*ICvox
*Ivox
*M4/4
*k[]
*C:
{8G
=1
4.c
8c
4.c
8e
=2
4.d
8d
4d
8r
8g
=3
4e
2r
8r
{8G
=4
4.c
8c
4.c
8e
=5
4.d
8d
4d
8r
8g
=6
4e
2r
8r
{8g
=7
4.g
8g
4g
8a
8g
=8
4.f
8f
4f
8r}
{8f
=9
4.e
8e
4e
8f
8g
=10
4.d
8d
4d
8r}
{8g
=11
4.e
8e
4.d
8d
=12
2c
4.r}
{8g
=13
4.g
8g
4g
8a
8g
=14
4.f
8f
4f
8r}
{8f
=15
4.e
8e
4e
8f
8g
=16
4.d
8d
4d
8r}
{8g
=17
4.e
8e
4.d
8d
=18
2c
4.r}
==
!!!AGN: Abschieds - Lied
!!!ONB: ESAC (Essen Associative Code) Database: ERK2
!!!AMT: simple quadruple
!!!AIN: vox
!!!EED: Helmut Schaffrath
!!!EEV: 1.0
*-
